docs/.gitbook/assets/icon-undo-16@light.svg

<svg width="32" height="32" viewBox="0 0 16 16" fill="none" xmlns="http://www.w3.org/2000/svg">
<rect x="0" y="0" width="16" height="16" fill="#fff"/>
<path fill-rule="evenodd" clip-rule="evenodd" d="M6.80747 2.24828C7.08457 2.55617 7.05961 3.03038 6.75172 3.30748L5.70447 4.25001H8.25C10.8734 4.25001 13 6.37665 13 9.00001V9.25001C13 11.8734 10.8734 14 8.25 14H3.75C3.33579 14 3 13.6642 3 13.25C3 12.8358 3.33579 12.5 3.75 12.5H8.25C10.0449 12.5 11.5 11.0449 11.5 9.25001V9.00001C11.5 7.20508 10.0449 5.75001 8.25 5.75001H5.70447L6.75172 6.69254C7.05961 6.96963 7.08457 7.44385 6.80747 7.75173C6.53038 8.05961 6.05616 8.08457 5.74828 7.80748L3.24828 5.55748C3.09024 5.41525 3 5.21262 3 5.00001C3 4.78739 3.09024 4.58477 3.24828 4.44254L5.74828 2.19254C6.05616 1.91544 6.53038 1.9404 6.80747 2.24828Z" fill="#000"/>
</svg>

<svg xmlns="http://www.w3.org/2000/svg" width="32" height="32" fill="none" viewBox="0 0 16 16"><path fill="#fff" d="M0 0h16v16H0z"/><path fill="#000" fill-rule="evenodd" d="M6.807 2.248a.75.75 0 0 1-.055 1.06l-1.048.942H8.25A4.75 4.75 0 0 1 13 9v.25A4.75 4.75 0 0 1 8.25 14h-4.5a.75.75 0 0 1 0-1.5h4.5a3.25 3.25 0 0 0 3.25-3.25V9a3.25 3.25 0 0 0-3.25-3.25H5.704l1.048.943a.75.75 0 1 1-1.004 1.114l-2.5-2.25a.75.75 0 0 1 0-1.114l2.5-2.25a.75.75 0 0 1 1.06.055" clip-rule="evenodd"/></svg>
